X: 1116
T: Crested Hens
B: max new tunes
B: steve tunes
M:3/4
Q: 1/4=100
K:Dmajor
V:1 
|:"Em"E3G FE|B4 Bc|"Bm"dc Be dc|dc BA GF|
"Em"E3G FE|B4 Bc|"Bm"dc BA GA|1 B3G FD:|2 B4 ef||
|:"Em"gB Bg gB|"C"=c4ef|"Am"gf ag fe|"B"d2e2 f2|
"Em"gB Bg gB|"C"=c4ef|"Am"gf a"Bm"g fd|1 "C"e3e ef:|2 "Em"e3G FA||
% abcbook-tune_id 62b5b3cc1e2a2391248fd696


% abcbook-boost 12
% abcbook-tablature 
% abcbook-transpose 
% abcbook-lastupdated 1667945509477
% abcbook-soundfonts 
% abcbook-repeats 3


